src/assets/images/logo-two-lines.svg

<svg viewBox="0 0 481.96 190.8" xmlns="http://www.w3.org/2000/svg"><path d="m70.73 88.41c-9.92 0-14.34-5.28-14.34-15.2v-5.28c-4.64 10.56-17.14 20.48-29.87 20.48-17.46 0-24.58-8.41-24.58-19 0-13.91 17.58-20.71 32.78-27.07 11.21-4.74 21.67-8 21.67-14.88v-.21c0-15.2-3.56-21.13-17.79-21.13-16.28 0-31.27 12-31.27 34.93v2.37h-2.69v-38.03h2.69v19.61c5.07-13.68 16.93-21.77 31.48-21.77 21.78 0 31.38 10.35 31.38 26.2v44c0 7.12 1.51 10.89 4.31 10.89 4.32 0 5.29-2.91 5.29-11.1v-8h2.69v8.19c0 11.59-2.26 15-11.75 15zm-41-4.2c13.48 0 26.63-15.21 26.63-26.63v-23.51c-3.34 3.88-10 6.47-20.59 11-13.13 5.5-18.77 8.73-18.77 19.41 0 11.86 1.87 19.73 12.76 19.73z"/><path d="m100.27 5.39h47.73c15.31 0 28.79 6.58 28.79 20.81s-14.78 21-29.33 21.13c20.81 7.23 13.91 36 26 36 4.53 0 6.69-2.26 6.69-8.19v-11.53h2.69v11.54c0 9.06-5.06 13.26-14.12 13.26-29.54 0-10.46-41.08-33.43-41.08h-10v36.23h18.22v2.69h-43.24v-2.69h11.22v-75.47h-11.22zm25 2.91v36.12h16.17c12.18 0 20.27-2.37 20.27-18.33s-8.07-17.79-20.25-17.79z"/><path d="m278.72 52.72h2.69v33.43h-2.69v-17.58c-5.07 13.05-17 19.84-34.4 19.84-29.86 0-43.77-14.66-43.77-41.83 0-27.93 13.37-43.35 43.13-43.35 16.92 0 28.14 7.23 32.88 20.49v-18.33h2.7v35.47h-2.7c0-22.42-10.67-34.71-32.78-34.71-21.78 0-28.14 11.1-28.14 40.54 0 27.71 6.79 38.6 28.68 38.6 21.35 0 34.4-10.36 34.4-32.57z"/><path d="m344.38 5.39h37.31v2.7h-11.22v75.47h11.22v2.69h-37.31v-2.69h12.29v-37.95h-30.83v38h12.29v2.69h-37.31v-2.74h11.18v-75.47h-11.18v-2.7h37.31v2.7h-12.29v34.61h30.83v-34.61h-12.29z"/><path d="m401.1 22.64h80.9v2.7h-33.57v58.22h33.42v2.69h-80.75v-2.69h33.53v-58.22h-33.53zm30.83-13a9.6 9.6 0 1 1 19.19 0 9.6 9.6 0 0 1 -19.19 0z"/><path d="m410.41 133c0 2.92-1.67 4.48-4.79 4.48s-4.71-1.56-4.71-4.48c0-3.23 1.56-5 4.71-5s4.79 1.73 4.79 5zm-8.47 0c0 2.35 1.18 3.42 3.68 3.42s3.77-1.07 3.77-3.42c0-2.82-1.14-4-3.77-4s-3.68 1.18-3.68 4z"/><path d="m446.43 136.68h-28.43v-1h7.56v-6.18h-7.6v-.95h7.6v-7.55c0-9.12 4.29-13.56 11.82-13.56 5 0 8 2.58 8 7 0 8.51-14.05 7-14.93 13.9v.23h16v.95h-16v6.23h16zm-16-10.71c2.7-5.09 13.87-4.6 13.87-11.55 0-4.11-3-6-6.84-6-4.82 0-7 3.12-7 12.54z"/><path d="m453.26 108.19h13.91v5.16c1.14-4.41 3.61-5.92 7-5.92 3.11 0 5.16 1.36 6.27 5.31v-4.55h.95v15.69h-.95v-1.11c0-11.51-2-14.24-6.27-14.24-5.09 0-6.61 3.53-6.61 11.78v15.42h10.74v1h-25v-1h9.42v-26.59h-9.42z"/><path d="m0 107.78h39.46v14.67c3.24-12.51 10.24-16.82 19.84-16.82 8.84 0 14.66 3.88 17.79 15.09v-12.94h2.7v44.53h-2.7v-3.12c0-32.67-5.61-40.44-17.79-40.44-14.45 0-18.76 10-18.76 33.43v43.82h30.51v2.7h-71.05v-2.7h26.74v-75.52h-26.74z"/><path d="m181.14 150.8h-65.77c.32 26.42 7.22 36.88 28.68 36.88 21.24 0 34.18-9.38 34.18-29.44h2.91c0 21.13-13.59 32.56-37.09 32.56-29.87 0-43.78-14.66-43.78-41.83 0-27.93 13.37-43.34 40-43.34 27.82 0 41.08 16.06 40.87 45.17zm-65.77-2.91h50.63c-.21-28.46-6.79-39.35-25.66-39.35-18.34 0-24.76 10.78-24.97 39.35z"/><path d="m198.39 107.78h36.23v2.7h-11.75v48c0 25.44 1.61 27.6 9.81 27.6 20.27 0 36.33-22 39.14-47.12a27 27 0 0 1 -12.51 2.81c-14.12 0-20.59-7.12-20.59-17.9s7.22-18.22 18.32-18.22c10.68 0 18.33 9.27 18.33 25v2.35c5.18-4.85 8.63-13.15 8.31-25.23h3.12c0 14.56-4.63 24.05-11.75 29.22-2.26 27.6-20 53.8-46.15 53.8-13 0-19.84-8.52-19.84-32.34v-48h-10.67zm62.21 30.95a22.22 22.22 0 0 0 11.54-3.24c.11-1.4.11-2.91.11-4.42 0-14.23-5.93-22.42-15.1-22.42-9.38 0-15.42 5.49-15.42 15.2 0 9.49 4.86 14.88 18.87 14.88z"/><path d="m381.69 150.8h-65.77c.32 26.42 7.22 36.88 28.68 36.88 21.24 0 34.17-9.38 34.17-29.44h2.92c0 21.13-13.59 32.56-37.09 32.56-29.87 0-43.78-14.66-43.78-41.83 0-27.93 13.37-43.34 40-43.34 27.82 0 41.08 16.06 40.87 45.17zm-65.77-2.91h50.67c-.21-28.46-6.79-39.35-25.66-39.35-18.44 0-24.8 10.78-25.01 39.35z"/></svg>

<svg xmlns="http://www.w3.org/2000/svg" viewBox="0 0 481.96 190.8"><g id="Calque_2" data-name="Calque 2"><g id="Calque_1-2" data-name="Calque 1"><path d="M70.73,88.41c-9.92,0-14.34-5.28-14.34-15.2V67.93C51.75,78.49,39.25,88.41,26.52,88.41c-17.46,0-24.58-8.41-24.58-19,0-13.91,17.58-20.71,32.78-27.07,11.21-4.74,21.67-8,21.67-14.88v-.21c0-15.2-3.56-21.13-17.79-21.13-16.28,0-31.27,12-31.27,34.93v2.37H4.64V5.39H7.33V25C12.4,11.32,24.26,3.23,38.81,3.23c21.78,0,31.38,10.35,31.38,26.2v44c0,7.12,1.51,10.89,4.31,10.89,4.32,0,5.29-2.91,5.29-11.1v-8h2.69v8.19C82.48,85,80.22,88.41,70.73,88.41Zm-41-4.2c13.48,0,26.63-15.21,26.63-26.63V34.07c-3.34,3.88-10,6.47-20.59,11C22.64,50.57,17,53.8,17,64.48,17,76.34,18.87,84.21,29.76,84.21Z"/><path d="M100.27,5.39H148c15.31,0,28.79,6.58,28.79,20.81s-14.78,21-29.33,21.13c20.81,7.23,13.91,36,26,36,4.53,0,6.69-2.26,6.69-8.19V63.61h2.69V75.15c0,9.06-5.06,13.26-14.12,13.26-29.54,0-10.46-41.08-33.43-41.08h-10V83.56h18.22v2.69H100.27V83.56h11.22V8.09H100.27Zm25,2.91V44.42h16.17c12.18,0,20.27-2.37,20.27-18.33S153.64,8.3,141.46,8.3Z"/><path d="M278.72,52.72h2.69V86.15h-2.69V68.57c-5.07,13.05-17,19.84-34.4,19.84-29.86,0-43.77-14.66-43.77-41.83,0-27.93,13.37-43.35,43.13-43.35,16.92,0,28.14,7.23,32.88,20.49V5.39h2.7V40.86h-2.7c0-22.42-10.67-34.71-32.78-34.71-21.78,0-28.14,11.1-28.14,40.54,0,27.71,6.79,38.6,28.68,38.6C265.67,85.29,278.72,74.93,278.72,52.72Z"/><path d="M344.38,5.39h37.31v2.7H370.47V83.56h11.22v2.69H344.38V83.56h12.29V45.61H325.84v38h12.29v2.69H300.82V83.56H312V8.09H300.82V5.39h37.31v2.7H325.84V42.7h30.83V8.09H344.38Z"/><path d="M401.1,22.64H482v2.7H448.43V83.56h33.42v2.69H401.1V83.56h33.53V25.34H401.1Zm30.83-13a9.6,9.6,0,1,1,19.19,0,9.6,9.6,0,0,1-19.19,0Z"/><path d="M410.41,133c0,2.92-1.67,4.48-4.79,4.48s-4.71-1.56-4.71-4.48c0-3.23,1.56-5,4.71-5S410.41,129.73,410.41,133Zm-8.47,0c0,2.35,1.18,3.42,3.68,3.42s3.77-1.07,3.77-3.42c0-2.82-1.14-4-3.77-4S401.94,130.18,401.94,133Z"/><path d="M446.43,136.68H418v-1h7.56V129.5h-7.6v-.95h7.6V121c0-9.12,4.29-13.56,11.82-13.56,5,0,8,2.58,8,7,0,8.51-14.05,7-14.93,13.9v.23h16v.95h-16v6.23h16Zm-16-10.71c2.7-5.09,13.87-4.6,13.87-11.55,0-4.11-3-6-6.84-6-4.82,0-7,3.12-7,12.54Z"/><path d="M453.26,108.19h13.91v5.16c1.14-4.41,3.61-5.92,7-5.92,3.11,0,5.16,1.36,6.27,5.31v-4.55h.95v15.69h-.95v-1.11c0-11.51-2-14.24-6.27-14.24-5.09,0-6.61,3.53-6.61,11.78v15.42H478.3v1h-25v-1h9.42V109.14h-9.42Z"/><path d="M0,107.78H39.46v14.67c3.24-12.51,10.24-16.82,19.84-16.82,8.84,0,14.66,3.88,17.79,15.09V107.78h2.7v44.53h-2.7v-3.12c0-32.67-5.61-40.44-17.79-40.44-14.45,0-18.76,10-18.76,33.43V186H71.05v2.7H0V186H26.74V110.48H0Z"/><path d="M181.14,150.8H115.37c.32,26.42,7.22,36.88,28.68,36.88,21.24,0,34.18-9.38,34.18-29.44h2.91c0,21.13-13.59,32.56-37.09,32.56-29.87,0-43.78-14.66-43.78-41.83,0-27.93,13.37-43.34,40-43.34C168.09,105.63,181.35,121.69,181.14,150.8Zm-65.77-2.91H166c-.21-28.46-6.79-39.35-25.66-39.35C122,108.54,115.58,119.32,115.37,147.89Z"/><path d="M198.39,107.78h36.23v2.7H222.87v48c0,25.44,1.61,27.6,9.81,27.6,20.27,0,36.33-22,39.14-47.12a27,27,0,0,1-12.51,2.81c-14.12,0-20.59-7.12-20.59-17.9s7.22-18.22,18.32-18.22c10.68,0,18.33,9.27,18.33,25V133c5.18-4.85,8.63-13.15,8.31-25.23h3.12c0,14.56-4.63,24.05-11.75,29.22-2.26,27.6-20,53.8-46.15,53.8-13,0-19.84-8.52-19.84-32.34v-48H198.39Zm62.21,30.95a22.22,22.22,0,0,0,11.54-3.24c.11-1.4.11-2.91.11-4.42,0-14.23-5.93-22.42-15.1-22.42-9.38,0-15.42,5.49-15.42,15.2C241.73,133.34,246.59,138.73,260.6,138.73Z"/><path d="M381.69,150.8H315.92c.32,26.42,7.22,36.88,28.68,36.88,21.24,0,34.17-9.38,34.17-29.44h2.92c0,21.13-13.59,32.56-37.09,32.56-29.87,0-43.78-14.66-43.78-41.83,0-27.93,13.37-43.34,40-43.34C368.64,105.63,381.9,121.69,381.69,150.8Zm-65.77-2.91h50.67c-.21-28.46-6.79-39.35-25.66-39.35C322.49,108.54,316.13,119.32,315.92,147.89Z"/></g></g></svg>
